src/assets/stroke-logo.svg

<svg width="485" height="284" viewBox="0 0 485 284" fill="none" xmlns="http://www.w3.org/2000/svg">
<path d="M249.474 338.62C360.385 338.62 450.296 248.556 450.296 137.458C450.296 26.3591 360.385 -63.7042 249.474 -63.7042C138.563 -63.7042 48.6526 26.3591 48.6526 137.458C48.6526 248.556 138.563 338.62 249.474 338.62Z" stroke="#FF8B87"/>
<path d="M290.319 286.883C290.092 278.26 285.69 259.244 269.897 252.164C250.155 243.315 237.221 249.441 225.988 250.462C214.756 251.484 190.93 257.951 170.167 200.087" stroke="#FF8B87"/>
<path d="M276.704 170.815C276.704 181.366 286.235 200.651 301.552 211.66C323.336 227.317 350.225 238.549 346.822 282.117" stroke="#FF8B87"/>
<path d="M230.413 53.385C246.411 51.6831 279.087 36.6385 281.81 -9.92487" stroke="#FF8B87"/>
<path d="M251.857 138.819C286.123 138.819 295.822 105.233 296.749 84" stroke="#FF8B87"/>
<path d="M120.267 121.077L141.489 177.668C147.524 178.708 151.239 180.126 151.239 181.689L151.238 181.719L151.228 181.688L151.264 181.825C151.391 182.479 151.371 183.191 151.202 183.962L151.239 183.964L151.124 184.284C150.959 184.902 150.703 185.556 150.355 186.246C144.729 199.542 132.298 208.921 117 208.921C101.938 208.921 89.0772 199.829 83.2559 186.86L83.597 187.465C82.9074 186.283 82.4388 185.205 82.1913 184.232C82.1613 184.145 82.1289 184.054 82.0969 183.964L82.1277 183.962C81.9832 183.294 81.9472 182.678 82.0198 182.113L82.0969 181.689L82.1127 181.512C82.3918 179.96 86.339 178.561 92.5561 177.55L113.733 121.077C114.753 118.337 119.241 118.337 120.267 121.077ZM232.211 121.069L253.429 177.648C259.176 178.629 262.848 179.95 263.258 181.414L263.2 181.295C263.535 181.941 263.633 182.685 263.492 183.528L263.404 183.957C263.282 184.435 263.095 184.935 262.839 185.463C257.36 199.174 244.539 208.914 228.945 208.914C213.515 208.914 200.395 199.373 194.787 185.897C194.454 185.241 194.191 184.614 194.057 184.025L194.043 183.963C194.042 183.961 194.042 183.959 194.041 183.957L194.042 183.955L193.999 183.686C193.944 183.21 193.974 182.635 194.088 181.961L194.173 181.506L194.165 181.545C194.169 181.519 194.174 181.494 194.179 181.468L194.188 181.438L194.192 181.439C194.576 179.926 198.443 178.564 204.487 177.57L225.678 121.069C226.697 118.33 231.185 118.33 232.211 121.069ZM117 132.266L100.376 176.593C105.23 176.159 110.777 175.913 116.668 175.913L117.725 175.915C123.5 175.944 128.919 176.21 133.646 176.656L117 132.266ZM228.945 132.266L212.315 176.604C217.197 176.163 222.787 175.913 228.726 175.913L229.782 175.915C235.511 175.944 240.889 176.206 245.589 176.645L228.945 132.266ZM173.463 55.434C173.463 55.434 181.742 81.4096 181.742 86.0104C181.742 89.1783 179.913 91.8545 177.309 93.2593C179.453 93.9547 181.337 95.1769 182.81 96.8135C186.098 93.9477 190.943 91.2855 197.895 91.2855C205.846 91.2855 212.681 94.7625 218.712 97.832C220.632 98.8084 222.495 99.7426 224.22 100.473C225.504 99.1104 227.298 98.2394 229.309 98.2394C233.204 98.2394 236.359 101.414 236.359 105.334C236.359 109.253 233.204 112.428 229.309 112.428C226.146 112.428 223.57 110.3 222.677 107.413C220.366 106.528 218 105.334 215.564 104.098C210.23 101.386 204.178 98.3097 197.895 98.3097C191.857 98.3097 188.088 101.126 185.938 103.508C186.021 104.112 186.119 104.709 186.119 105.334C186.119 112.365 180.451 118.069 173.463 118.069C166.475 118.069 160.807 112.365 160.807 105.334C160.807 104.709 160.905 104.105 160.989 103.501C158.832 101.112 155.062 98.3097 149.031 98.3097C142.748 98.3097 136.696 101.393 131.356 104.105C128.926 105.341 126.56 106.535 124.249 107.42C123.356 110.307 120.78 112.435 117.618 112.435C113.722 112.435 110.567 109.253 110.567 105.334C110.567 101.414 113.722 98.2394 117.618 98.2394C119.628 98.2394 121.422 99.1174 122.707 100.473C124.431 99.7496 126.288 98.8154 128.207 97.832C134.239 94.7625 141.08 91.2855 149.031 91.2855C155.983 91.2855 160.828 93.9477 164.116 96.8135C165.589 95.1769 167.474 93.9477 169.617 93.2593C167.013 91.8545 165.184 89.1853 165.184 86.0104C165.184 81.4096 173.463 55.434 173.463 55.434Z" fill="#FCE9DE"/>
<path d="M272.412 46.7816C272.412 46.7816 263.823 47.5197 258.133 50.5945C258.133 50.5945 280.765 50.4722 291.298 59.3206C291.298 59.3206 265.683 51.4503 235.827 70.9947C235.827 70.9947 283.311 61.8973 305.822 81.1972C305.822 81.1972 298.558 67.7524 283.28 64.8588C283.28 64.8588 300.662 64.166 306.616 67.0596C306.616 67.0596 301.474 55.9832 295.646 53.3432V45.4474C295.646 43.8485 286.941 35.7174 272.412 34.3453V46.7816Z" fill="#FCE9DE" fill-opacity="0.6"/>
<path d="M272.412 46.7816C272.412 46.7816 263.824 47.5197 258.133 50.5945C258.133 50.5945 280.765 50.4722 291.298 59.3206C291.298 59.3206 265.683 51.4503 235.828 70.9947C235.828 70.9947 283.311 61.8973 305.822 81.1972C305.822 81.1972 298.558 67.7524 283.28 64.8588C283.28 64.8588 300.663 64.166 306.616 67.0596C306.616 67.0596 301.474 55.9832 295.646 53.3432V45.4474C295.646 43.8485 286.941 35.7174 272.412 34.3453V46.7816Z" stroke="#FF8B87"/>
<path d="M268.55 82.0892C268.55 82.0892 272.213 85.284 273.763 88.2362C273.763 88.2362 270.415 91.5454 267.215 93.1749C267.215 93.1749 276.909 96.2278 279.462 99.8392C274.294 98.2143 265.467 98.823 263.341 103.212C269.242 102.576 272.855 104.1 273.615 106.362C273.615 106.362 272.212 108.383 267.916 109.282C263.341 110.239 262.172 112.141 262.172 114.797C262.172 117.453 265.646 119.882 271.956 119.685C278.258 119.484 295.444 116.884 296.743 84.3686C295.444 81.311 279.745 75.0679 268.509 75.1365L268.55 82.0892Z" fill="#FCE9DE" fill-opacity="0.6"/>
<path d="M268.549 82.0892C268.549 82.0892 272.212 85.284 273.763 88.2362C273.763 88.2362 270.415 91.5454 267.215 93.1749C267.215 93.1749 276.909 96.2278 279.462 99.8392C274.293 98.2143 265.466 98.823 263.34 103.212C269.242 102.576 272.855 104.1 273.615 106.362C273.615 106.362 272.212 108.383 267.916 109.282C263.34 110.239 262.172 112.141 262.172 114.797C262.172 117.453 265.646 119.882 271.956 119.685C278.257 119.484 295.444 116.884 296.743 84.3686C295.444 81.311 279.745 75.0679 268.509 75.1365L268.549 82.0892Z" stroke="#FF8B87"/>
<path d="M302.147 118.073C309.862 106.066 314.083 95.6049 314.811 86.6885C326.233 99.3812 325.546 114.242 323.606 125.615C322.297 121.955 320.608 118.191 318.54 114.321C319.907 131.856 314.715 141.35 302.967 142.802C301.593 134.702 301.319 126.459 302.147 118.073Z" fill="#FCE9DE" fill-opacity="0.6"/>
<path d="M302.147 118.073C309.862 106.066 314.083 95.6049 314.811 86.6885C326.233 99.3812 325.546 114.242 323.606 125.615C322.297 121.955 320.608 118.191 318.54 114.321C319.907 131.856 314.715 141.35 302.967 142.802C301.593 134.702 301.319 126.459 302.147 118.073Z" stroke="#FF8B87"/>
<path d="M159.588 9.16895C157.444 12.4668 154.302 21.636 150.161 36.6768C140.854 47.3263 131.751 61.9421 122.85 80.5243C118.455 81.8907 113.793 83.8195 108.864 86.311C121.506 63.0672 133.875 45.5211 145.969 33.6701C148.763 24.3822 153.303 16.2152 159.588 9.16895Z" fill="#FCE9DE" fill-opacity="0.6"/>
<path d="M185.073 35.0994L153.794 49.8566C162.707 50.0065 169.785 48.3861 175.029 44.9953C180.273 41.6045 183.621 38.3058 185.073 35.0994Z" fill="white" fill-opacity="0.1"/>
<path d="M173.532 29.7165C173.355 23.267 172.515 19.642 171.013 18.8415C169.343 18.0956 168.372 16.489 169.343 13.5554C169.941 11.6907 169.761 9.61492 168.802 7.32796L177.286 1.65979L186.835 7.67901C187.169 9.80287 186.475 11.7617 184.753 13.5554C186.835 15.8075 186.835 18.7143 184.423 22.0717C184.49 22.9035 184.537 23.7189 184.563 24.5181C184.603 25.7294 184.556 27.4622 184.423 29.7165H173.532Z" fill="#FCE9DE" fill-opacity="0.6"/>
<path d="M173.532 29.7165C173.355 23.267 172.515 19.642 171.012 18.8415C169.343 18.0956 168.372 16.489 169.343 13.5554C169.941 11.6907 169.761 9.61492 168.801 7.32796L177.286 1.65979L186.834 7.67901C187.169 9.80287 186.475 11.7617 184.753 13.5554C186.834 15.8075 186.834 18.7143 184.423 22.0717C184.49 22.9035 184.537 23.7189 184.563 24.5181C184.603 25.7294 184.556 27.4622 184.423 29.7165H173.532Z" stroke="#FF8B87"/>
<path d="M291.344 129.079C289.848 156.345 295.653 171.839 308.759 175.563C328.418 181.148 354.715 182.779 361.864 224.184C363.641 229.784 362.777 234.93 364.247 239.975C358.482 246.078 352.231 251.713 345.555 256.818C339.021 241.019 330.852 231.262 319.367 224.184C274.103 195.987 264.762 164.286 291.344 129.079Z" fill="#FCE9DE" fill-opacity="0.6"/>
<path d="M308.759 175.563C328.418 181.148 354.715 182.779 361.864 224.184C363.641 229.784 362.777 234.93 364.247 239.975C358.482 246.078 352.231 251.713 345.555 256.818C339.021 241.019 330.852 231.262 319.367 224.184" stroke="#FF8B87"/>
<path d="M177.391 215.85C201.093 275.352 239.035 237.227 268.344 251.165C281.746 257.538 289.056 269.237 290.276 286.262C278.849 288.923 266.944 290.327 254.71 290.327C230.99 290.327 208.5 285.046 188.346 275.593C188.272 257.682 184.619 237.768 177.391 215.85Z" fill="#FCE9DE" fill-opacity="0.6"/>
<path d="M303.942 37.819C313.502 53.0204 317.961 64.2647 317.319 71.5518C317.075 74.185 315.918 77.1229 313.847 80.3655C321.122 79.7162 324.759 75.2426 324.759 66.9447C324.759 58.6468 317.82 48.9382 303.942 37.819Z" fill="#FCE9DE" fill-opacity="0.6"/>
<path d="M303.942 37.819C313.502 53.0204 317.961 64.2647 317.319 71.5518C317.075 74.185 315.918 77.1229 313.847 80.3655C321.122 79.7162 324.759 75.2426 324.759 66.9447C324.759 58.6468 317.82 48.9382 303.942 37.819Z" stroke="#FF8B87"/>
<path d="M220.869 54.9499C227.017 53.2513 232.042 49.4157 235.944 43.4432C235.696 46.9991 234.806 50.0599 233.272 52.6256C251.042 49.4292 264.833 38.6621 274.645 20.324C256.552 10.4864 237.902 17.1974 227.906 29.4357C221.241 37.5946 218.896 46.0993 220.869 54.9499Z" fill="#FCE9DE" fill-opacity="0.6"/>
<circle cx="173.57" cy="105.462" r="12.5939" stroke="#FF8A87"/>
<circle cx="173.5" cy="85.5" r="7.5" stroke="#FF8A87"/>
<circle cx="116.387" cy="173.538" r="35.7394" stroke="#FF8A87"/>
<circle cx="228.711" cy="173.538" r="35.7394" stroke="#FF8A87"/>
<circle cx="94.2629" cy="263.737" r="93.2629" stroke="#FF8A87"/>
<circle cx="403.324" cy="87.4225" r="80.3286" stroke="#FF8A87"/>
<circle cx="316.869" cy="150.052" r="26.5493" stroke="#FF8A87"/>
<path d="M227.943 73.9923C215.396 58.7546 217.578 36.2311 232.816 23.6846C248.053 11.1381 270.577 13.3198 283.123 28.5575" stroke="#FF8A87"/>
<circle cx="117.749" cy="105.462" r="7.14789" stroke="#FF8A87"/>
<circle cx="229.392" cy="105.462" r="7.14789" stroke="#FF8A87"/>
<circle cx="330.824" cy="206.214" r="21.4437" stroke="#FF8A87"/>
<circle cx="286.575" cy="170.815" r="9.87089" stroke="#FF8A87"/>
<circle cx="249.815" cy="268.843" r="21.4437" stroke="#FF8A87"/>
<path d="M314.146 80.615C315.167 79.367 317.209 75.4413 317.209 69.723C317.209 62.5751 311.082 44.5352 296.446 30.2394" stroke="#FF8A87"/>
<path d="M153.829 49.6409C163.586 51.6831 185.824 47.5986 194.674 14.9225" stroke="#FF8A87"/>
<path d="M108.899 86.4014C112.643 79.367 122.106 62.7793 130.002 52.7042C137.899 42.6291 143.958 35.7989 146 33.6432C148.269 26.0414 156.007 9.4765 168.805 -0.0540161" stroke="#FF8A87"/>
<path d="M302.232 111.93C300.984 121.233 300.598 143.789 309.04 159.582" stroke="#FF8A87"/>
<path d="M318.571 114.653C320.272 124.75 319.251 145.286 293.723 143.585" stroke="#FF8A87"/>
</svg>

<svg width="485" height="284" fill="none" xmlns="http://www.w3.org/2000/svg"><path d="M249.474 338.62c110.911 0 200.822-90.064 200.822-201.162 0-111.099-89.911-201.162-200.822-201.162S48.653 26.359 48.653 137.458c0 111.098 89.91 201.162 200.821 201.162z" stroke="#FF8B87"/><path d="M290.319 286.883c-.227-8.623-4.629-27.639-20.422-34.719-19.742-8.849-32.676-2.723-43.909-1.702-11.232 1.022-35.058 7.489-55.821-50.375M276.704 170.815c0 10.551 9.531 29.836 24.848 40.845 21.784 15.657 48.673 26.889 45.27 70.457M230.413 53.385c15.998-1.702 48.674-16.746 51.397-63.31M251.857 138.819c34.266 0 43.965-33.586 44.892-54.819" stroke="#FF8B87"/><path d="M120.267 121.077l21.222 56.591c6.035 1.04 9.75 2.458 9.75 4.021l-.001.03-.01-.031.036.137c.127.654.107 1.366-.062 2.137l.037.002-.115.32a10.276 10.276 0 01-.769 1.962c-5.626 13.296-18.057 22.675-33.355 22.675-15.062 0-27.923-9.092-33.744-22.061l.341.605c-.69-1.182-1.158-2.26-1.406-3.233l-.094-.268.03-.002c-.144-.668-.18-1.284-.107-1.849l.077-.424.016-.177c.279-1.552 4.226-2.951 10.443-3.962l21.177-56.473c1.02-2.74 5.508-2.74 6.534 0zm111.944-.008l21.218 56.579c5.747.981 9.419 2.302 9.829 3.766l-.058-.119c.335.646.433 1.39.292 2.233l-.088.429a7.998 7.998 0 01-.565 1.506c-5.479 13.711-18.3 23.451-33.894 23.451-15.43 0-28.55-9.541-34.158-23.017-.333-.656-.596-1.283-.73-1.872l-.014-.062-.002-.006.001-.002-.043-.269c-.055-.476-.025-1.051.089-1.725l.085-.455-.008.039.014-.077.009-.03.004.001c.384-1.513 4.251-2.875 10.295-3.869l21.191-56.501c1.019-2.739 5.507-2.739 6.533 0zM117 132.266l-16.624 44.327c4.854-.434 10.401-.68 16.292-.68l1.057.002c5.775.029 11.194.295 15.921.741L117 132.266zm111.945 0l-16.63 44.338c4.882-.441 10.472-.691 16.411-.691l1.056.002c5.729.029 11.107.291 15.807.73l-16.644-44.379zm-55.482-76.832s8.279 25.976 8.279 30.576c0 3.168-1.829 5.844-4.433 7.25a12.598 12.598 0 015.501 3.553c3.288-2.865 8.133-5.528 15.085-5.528 7.951 0 14.786 3.478 20.817 6.547 1.92.976 3.783 1.91 5.508 2.641 1.284-1.363 3.078-2.234 5.089-2.234 3.895 0 7.05 3.175 7.05 7.095 0 3.919-3.155 7.094-7.05 7.094-3.163 0-5.739-2.128-6.632-5.015-2.311-.885-4.677-2.079-7.113-3.315-5.334-2.712-11.386-5.788-17.669-5.788-6.038 0-9.807 2.816-11.957 5.198.083.604.181 1.201.181 1.826 0 7.031-5.668 12.735-12.656 12.735s-12.656-5.704-12.656-12.735c0-.625.098-1.229.182-1.833-2.157-2.389-5.927-5.191-11.958-5.191-6.283 0-12.335 3.083-17.675 5.795-2.43 1.236-4.796 2.43-7.107 3.315-.893 2.887-3.469 5.015-6.631 5.015-3.896 0-7.051-3.182-7.051-7.101 0-3.92 3.155-7.095 7.051-7.095 2.01 0 3.804.878 5.089 2.234 1.724-.723 3.581-1.658 5.5-2.641 6.032-3.07 12.873-6.546 20.824-6.546 6.952 0 11.797 2.662 15.085 5.528a12.543 12.543 0 015.501-3.555c-2.604-1.404-4.433-4.074-4.433-7.249 0-4.6 8.279-30.576 8.279-30.576z" fill="#FCE9DE"/><path d="M272.412 46.782s-8.589.738-14.279 3.813c0 0 22.632-.123 33.165 8.726 0 0-25.615-7.87-55.471 11.674 0 0 47.484-9.098 69.995 10.202 0 0-7.264-13.445-22.542-16.338 0 0 17.382-.693 23.336 2.2 0 0-5.142-11.076-10.97-13.716v-7.896c0-1.599-8.705-9.73-23.234-11.102v12.437z" fill="#FCE9DE" fill-opacity=".6"/><path d="M272.412 46.782s-8.588.738-14.279 3.813c0 0 22.632-.123 33.165 8.726 0 0-25.615-7.87-55.47 11.674 0 0 47.483-9.098 69.994 10.202 0 0-7.264-13.445-22.542-16.338 0 0 17.383-.693 23.336 2.2 0 0-5.142-11.076-10.97-13.716v-7.896c0-1.599-8.705-9.73-23.234-11.102v12.437z" stroke="#FF8B87"/><path d="M268.55 82.09s3.663 3.194 5.213 6.146c0 0-3.348 3.31-6.548 4.939 0 0 9.694 3.053 12.247 6.664-5.168-1.625-13.995-1.016-16.121 3.373 5.901-.636 9.514.888 10.274 3.15 0 0-1.403 2.021-5.699 2.92-4.575.957-5.744 2.859-5.744 5.515 0 2.656 3.474 5.085 9.784 4.888 6.302-.201 23.488-2.801 24.787-35.316-1.299-3.058-16.998-9.301-28.234-9.233l.041 6.953z" fill="#FCE9DE" fill-opacity=".6"/><path d="M268.549 82.09s3.663 3.194 5.214 6.146c0 0-3.348 3.31-6.548 4.939 0 0 9.694 3.053 12.247 6.664-5.169-1.625-13.996-1.016-16.122 3.373 5.902-.636 9.515.888 10.275 3.15 0 0-1.403 2.021-5.699 2.92-4.576.957-5.744 2.859-5.744 5.515 0 2.656 3.474 5.085 9.784 4.888 6.301-.201 23.488-2.801 24.787-35.316-1.299-3.058-16.998-9.301-28.234-9.233l.04 6.953z" stroke="#FF8B87"/><path d="M302.147 118.073c7.715-12.007 11.936-22.468 12.664-31.384 11.422 12.692 10.735 27.553 8.795 38.926-1.309-3.66-2.998-7.424-5.066-11.294 1.367 17.535-3.825 27.029-15.573 28.481-1.374-8.1-1.648-16.343-.82-24.729z" fill="#FCE9DE" fill-opacity=".6"/><path d="M302.147 118.073c7.715-12.007 11.936-22.468 12.664-31.384 11.422 12.692 10.735 27.553 8.795 38.926-1.309-3.66-2.998-7.424-5.066-11.294 1.367 17.535-3.825 27.029-15.573 28.481-1.374-8.1-1.648-16.343-.82-24.729z" stroke="#FF8B87"/><path d="M159.588 9.169c-2.144 3.298-5.286 12.467-9.427 27.508-9.307 10.65-18.41 25.265-27.311 43.847-4.395 1.367-9.057 3.296-13.986 5.787 12.642-23.244 25.011-40.79 37.105-52.64 2.794-9.289 7.334-17.456 13.619-24.502z" fill="#FCE9DE" fill-opacity=".6"/><path d="M185.073 35.1l-31.279 14.757c8.913.15 15.991-1.47 21.235-4.862 5.244-3.39 8.592-6.69 10.044-9.896z" fill="#fff" fill-opacity=".1"/><path d="M173.532 29.716c-.177-6.449-1.017-10.074-2.519-10.875-1.67-.745-2.641-2.352-1.67-5.286.598-1.864.418-3.94-.541-6.227l8.484-5.668 9.549 6.019c.334 2.124-.36 4.083-2.082 5.876 2.082 2.252 2.082 5.16-.33 8.517.067.832.114 1.647.14 2.446.04 1.211-.007 2.944-.14 5.198h-10.891z" fill="#FCE9DE" fill-opacity=".6"/><path d="M173.532 29.716c-.177-6.449-1.017-10.074-2.52-10.875-1.669-.745-2.64-2.352-1.669-5.286.598-1.864.418-3.94-.542-6.227l8.485-5.668 9.548 6.019c.335 2.124-.359 4.083-2.081 5.876 2.081 2.252 2.081 5.16-.33 8.517.067.832.114 1.647.14 2.446.04 1.211-.007 2.944-.14 5.198h-10.891z" stroke="#FF8B87"/><path d="M291.344 129.079c-1.496 27.266 4.309 42.76 17.415 46.484 19.659 5.585 45.956 7.216 53.105 48.621 1.777 5.6.913 10.746 2.383 15.791a156.425 156.425 0 01-18.692 16.843c-6.534-15.799-14.703-25.556-26.188-32.634-45.264-28.197-54.605-59.898-28.023-95.105z" fill="#FCE9DE" fill-opacity=".6"/><path d="M308.759 175.563c19.659 5.585 45.956 7.216 53.105 48.621 1.777 5.6.913 10.746 2.383 15.791a156.425 156.425 0 01-18.692 16.843c-6.534-15.799-14.703-25.556-26.188-32.634" stroke="#FF8B87"/><path d="M177.391 215.85c23.702 59.502 61.644 21.377 90.953 35.315 13.402 6.373 20.712 18.072 21.932 35.097a156.652 156.652 0 01-35.566 4.065c-23.72 0-46.21-5.281-66.364-14.734-.074-17.911-3.727-37.825-10.955-59.743zM303.942 37.819c9.56 15.201 14.019 26.446 13.377 33.733-.244 2.633-1.401 5.57-3.472 8.813 7.275-.649 10.912-5.122 10.912-13.42s-6.939-18.007-20.817-29.126z" fill="#FCE9DE" fill-opacity=".6"/><path d="M303.942 37.819c9.56 15.201 14.019 26.446 13.377 33.733-.244 2.633-1.401 5.57-3.472 8.813 7.275-.649 10.912-5.122 10.912-13.42s-6.939-18.007-20.817-29.126z" stroke="#FF8B87"/><path d="M220.869 54.95c6.148-1.699 11.173-5.534 15.075-11.507-.248 3.556-1.138 6.617-2.672 9.183 17.77-3.197 31.561-13.964 41.373-32.302-18.093-9.838-36.743-3.127-46.739 9.112-6.665 8.159-9.01 16.663-7.037 25.514z" fill="#FCE9DE" fill-opacity=".6"/><circle cx="173.57" cy="105.462" r="12.594" stroke="#FF8A87"/><circle cx="173.5" cy="85.5" r="7.5" stroke="#FF8A87"/><circle cx="116.387" cy="173.538" r="35.739" stroke="#FF8A87"/><circle cx="228.711" cy="173.538" r="35.739" stroke="#FF8A87"/><circle cx="94.263" cy="263.737" r="93.263" stroke="#FF8A87"/><circle cx="403.324" cy="87.422" r="80.329" stroke="#FF8A87"/><circle cx="316.869" cy="150.052" r="26.549" stroke="#FF8A87"/><path d="M227.943 73.992c-12.547-15.237-10.365-37.76 4.873-50.307 15.237-12.547 37.761-10.365 50.307 4.873" stroke="#FF8A87"/><circle cx="117.749" cy="105.462" r="7.148" stroke="#FF8A87"/><circle cx="229.392" cy="105.462" r="7.148" stroke="#FF8A87"/><circle cx="330.824" cy="206.214" r="21.444" stroke="#FF8A87"/><circle cx="286.575" cy="170.815" r="9.871" stroke="#FF8A87"/><circle cx="249.815" cy="268.843" r="21.444" stroke="#FF8A87"/><path d="M314.146 80.615c1.021-1.248 3.063-5.174 3.063-10.892 0-7.148-6.127-25.188-20.763-39.484M153.829 49.64c9.757 2.043 31.995-2.041 40.845-34.718M108.899 86.401c3.744-7.034 13.207-23.622 21.103-33.697C137.899 42.63 143.958 35.8 146 33.644c2.269-7.603 10.007-24.167 22.805-33.698M302.232 111.93c-1.248 9.303-1.634 31.859 6.808 47.652M318.571 114.653c1.701 10.097.68 30.633-24.848 28.932" stroke="#FF8A87"/></svg>
